X:1
T: Old Rosin, the Beau
I:
C: W-2
M: 3/4
Z:
R: waltz
K: G
D2| "G"G2 F2 G2| B2 A2 G2| d6| "C"e2 f2 g2| \
    "G"d2 B2 G2| G2 A2 B2| "Em"E6-| E4 D2|
    "G"G2 F2 G2| B2 A2 G2| d6| "C"e2 f2 g2| \
    "G"d2 B2 G2| "D7"A2 B2 A2| "G"G6-| G4|]
\
Bc| "G"d2 B2 d2| d2 e2 f2| "C"g4 e2| g4 e2| \
    "G"d2 B2 G2| G2 A2 B2| "Em"E6-| E4 D2|
    "G"G2 F2 G2| B2 A2 G2| d6| "C"e2 f2 g2| \
    "G"d2 B2 G2| "D7"A2 B2 A2| "G"G6-| G4|]
%
